X: 95
T: Qongren nan
%%abc-version 2.0
%%abcx-abcm2ps-target-version 5.9.1 (29 Sep 2008)
%%abc-creator hum2abc beta
%%abcx-conversion-date 2013/10/02 07:52:29
%%abc-edited-by Helmut Schaffrath
%%humdrum-veritas 2829658315
%%humdrum-veritas-data 3682648113
%%continueall 1
%%barnumbers 0
L: 1/8
M: 2/4
K: Eb
E D C B,/ C/ [I:setbarnb 1]| 
E D C G, | 
B, C E F | 
B FE2 | 
z B D F | 
G> D C G, | 
B, B,/ C/ E D | 
C B,F,2- | 
F,2z2 |]  



